#ifndef USERPREFS_HAS_SPLASH
#define icon_width 112
#define icon_height 48
static uint8_t icon_bits[] = {
0x00, 0x00, 0xF0, 0xFF, 0xFF, 0x07, 0x00, 0x00, 0xF0, 0xFF, 0xFF, 0xFF, 
  0xFF, 0x1F, 0x00, 0x00, 0xF8, 0xFF, 0xFF, 0x0F, 0x00, 0x00, 0xF8, 0xFF, 
  0xFF, 0xFF, 0xFF, 0x3F, 0x00, 0x00, 0xFC, 0xFF, 0xFF, 0x1F, 0x00, 0x00, 
  0xFC, 0xFF, 0xFF, 0xFF, 0xFF, 0x7F, 0x00, 0x00, 0xFE, 0xFF, 0xFF, 0x3F, 
  0x00, 0x00, 0xFE, 0xFF, 0xFF, 0xFF, 0xFF, 0x7F, 0x00, 0x00, 0xFE, 0xFF, 
  0xFF, 0x7F, 0x00, 0x00, 0xFF, 0xFF, 0xFF, 0xFF, 0xFF, 0xFF, 0x00, 0x00, 
  0xFF, 0xFF, 0xFF, 0xFF, 0x00, 0x00, 0xFF, 0xFF, 0xFF, 0xFF, 0xFF, 0xFF, 
  0x00, 0x80, 0xFF, 0xFF, 0xFF, 0xFF, 0x01, 0x00, 0xFF, 0xFF, 0xFF, 0xFF, 
  0xFF, 0xFF, 0x00, 0xC0, 0xFF, 0xFF, 0xFF, 0xFF, 0x03, 0x00, 0xFF, 0xFF, 
  0xFF, 0xFF, 0xFF, 0xFF, 0x00, 0xE0, 0xFF, 0xFF, 0xFF, 0xFF, 0x03, 0x00, 
  0xFF, 0xFF, 0xFF, 0xFF, 0xFF, 0xFF, 0x00, 0xF0, 0xFF, 0x03, 0x00, 0xFE, 
  0x07, 0x00, 0xFF, 0xFF, 0xFF, 0xFF, 0xFF, 0xFF, 0x00, 0xF8, 0xFF, 0x03, 
  0x00, 0xFE, 0x0F, 0x00, 0xFF, 0xFF, 0xFF, 0xFF, 0xFF, 0xFF, 0x00, 0xFC, 
  0xFF, 0x03, 0x00, 0xFE, 0x1F, 0x00, 0xFF, 0xFF, 0xFF, 0xFF, 0xFF, 0xFF, 
  0x00, 0xFE, 0xFF, 0x03, 0x00, 0xFE, 0x3F, 0x00, 0xFF, 0xFF, 0xFF, 0xFF, 
  0xFF, 0xFF, 0x00, 0xFF, 0xFF, 0x03, 0x00, 0xFE, 0x7F, 0x00, 0xFF, 0xFF, 
  0xFF, 0xFF, 0xFF, 0xFF, 0x80, 0xFF, 0xFF, 0x83, 0x07, 0xFE, 0xFF, 0x00, 
  0xFF, 0xFF, 0xFB, 0xFF, 0xFF, 0xFF, 0xC0, 0xFF, 0xFF, 0x83, 0x07, 0xFE, 
  0xFF, 0x01, 0xFF, 0xFF, 0xF1, 0x8F, 0xFF, 0xFF, 0xE0, 0xFF, 0xFF, 0x83, 
  0x07, 0xFE, 0xFF, 0x03, 0xFF, 0xFF, 0xF1, 0x87, 0xFF, 0xFF, 0xF0, 0xFF, 
  0xFF, 0x83, 0x07, 0xFE, 0xFF, 0x07, 0xFF, 0xFF, 0xF8, 0x03, 0xFF, 0xFF, 
  0xF0, 0xFF, 0xFF, 0x83, 0x07, 0xFE, 0xFF, 0x0F, 0xFF, 0x7F, 0xF8, 0x03, 
  0xFE, 0xFF, 0xF8, 0xFF, 0xFF, 0x81, 0x07, 0xFE, 0xFF, 0x1F, 0xFF, 0x7F, 
  0xFC, 0x31, 0xFE, 0xFF, 0xFC, 0xFF, 0xFF, 0x81, 0x07, 0xFE, 0xFF, 0x3F, 
  0xFF, 0x3F, 0xFE, 0x70, 0xFC, 0xFF, 0xFE, 0xFF, 0xFF, 0x81, 0x07, 0xFE, 
  0xFF, 0x7F, 0xFF, 0x1F, 0xFE, 0x78, 0xF8, 0xFF, 0xFE, 0xFF, 0xFF, 0x81, 
  0x07, 0xFE, 0xFF, 0xFF, 0xFF, 0x1F, 0x7F, 0xFC, 0xF8, 0xFF, 0xFF, 0xFF, 
  0xFF, 0x81, 0x07, 0xFE, 0xFF, 0xFF, 0xFF, 0x8F, 0x3F, 0xFC, 0xF1, 0xFF, 
  0xFF, 0xFF, 0xFF, 0x81, 0x07, 0xFE, 0xFF, 0xFF, 0xFF, 0x87, 0x3F, 0xFE, 
  0xE1, 0xFF, 0xFF, 0xFF, 0xFF, 0xC1, 0x07, 0xFE, 0xFF, 0xFF, 0xFF, 0xC7, 
  0x1F, 0xFF, 0xE3, 0xFF, 0xFE, 0xFF, 0xFF, 0xC1, 0x07, 0xFE, 0xFF, 0x7F, 
  0xFF, 0xE3, 0x0F, 0xFF, 0xC7, 0xFF, 0xFC, 0xFF, 0xFF, 0xC1, 0x07, 0xFE, 
  0xFF, 0x3F, 0xFF, 0xE1, 0x87, 0xFF, 0x87, 0xFF, 0xF8, 0xFF, 0xFF, 0xC0, 
  0x07, 0xFE, 0xFF, 0x1F, 0xFF, 0xF0, 0xC7, 0xFF, 0x0F, 0xFF, 0xF0, 0xFF, 
  0xFF, 0xC0, 0x07, 0xFE, 0xFF, 0x0F, 0xFF, 0xF8, 0xC3, 0xFF, 0x1F, 0xFF, 
  0xF0, 0xFF, 0xFF, 0xE0, 0x07, 0xFE, 0xFF, 0x07, 0xFF, 0xF8, 0xE3, 0xFF, 
  0x1F, 0xFF, 0xE0, 0xFF, 0x7F, 0xE0, 0x07, 0xFE, 0xFF, 0x03, 0xFF, 0xFD, 
  0xF7, 0xFF, 0xBF, 0xFF, 0xC0, 0xFF, 0x3F, 0xE0, 0x07, 0xFE, 0xFF, 0x01, 
  0xFF, 0xFF, 0xFF, 0xFF, 0xFF, 0xFF, 0x80, 0xFF, 0x0F, 0xF0, 0x07, 0xFE, 
  0xFF, 0x00, 0xFF, 0xFF, 0xFF, 0xFF, 0xFF, 0xFF, 0x00, 0xFF, 0x0F, 0xF0, 
  0x07, 0xFE, 0x7F, 0x00, 0xFF, 0xFF, 0xFF, 0xFF, 0xFF, 0xFF, 0x00, 0xFE, 
  0x0F, 0xF8, 0x07, 0xFE, 0x3F, 0x00, 0xFF, 0xFF, 0xFF, 0xFF, 0xFF, 0xFF, 
  0x00, 0xFC, 0x0F, 0xFC, 0x07, 0xFE, 0x1F, 0x00, 0xFF, 0xFF, 0xFF, 0xFF, 
  0xFF, 0xFF, 0x00, 0xF8, 0x0F, 0xFE, 0x07, 0xFE, 0x0F, 0x00, 0xFF, 0xFF, 
  0xFF, 0xFF, 0xFF, 0xFF, 0x00, 0xF0, 0x9F, 0xFF, 0xFF, 0xFF, 0x0F, 0x00, 
  0xFF, 0xFF, 0xFF, 0xFF, 0xFF, 0xFF, 0x00, 0xE0, 0xFF, 0xFF, 0xFF, 0xFF, 
  0x07, 0x00, 0xFF, 0xFF, 0xFF, 0xFF, 0xFF, 0xFF, 0x00, 0xC0, 0xFF, 0xFF, 
  0xFF, 0xFF, 0x03, 0x00, 0xFF, 0xFF, 0xFF, 0xFF, 0xFF, 0xFF, 0x00, 0x80, 
  0xFF, 0xFF, 0xFF, 0xFF, 0x01, 0x00, 0xFF, 0xFF, 0xFF, 0xFF, 0xFF, 0xFF, 
  0x00, 0x80, 0xFF, 0xFF, 0xFF, 0xFF, 0x00, 0x00, 0xFE, 0xFF, 0xFF, 0xFF, 
  0xFF, 0x7F, 0x00, 0x00, 0xFF, 0xFF, 0xFF, 0x7F, 0x00, 0x00, 0xFC, 0xFF, 
  0xFF, 0xFF, 0xFF, 0x7F, 0x00, 0x00, 0xFE, 0xFF, 0xFF, 0x3F, 0x00, 0x00, 
  0xF8, 0xFF, 0xFF, 0xFF, 0xFF, 0x3F, 0x00, 0x00, 0xFC, 0xFF, 0xFF, 0x1F, 
  0x00, 0x00, 0xF0, 0xFF, 0xFF, 0xFF, 0xFF, 0x1F, 0x00, 0x00, 0xF8, 0xFF, 
  0xFF, 0x0F, 0x00, 0x00, 0xE0, 0xFF, 0xFF, 0xFF, 0xFF, 0x07, 0x00, 0x00, 
  0xF0, 0xFF, 0xFF, 0x07, 0x00, 0x00, 0x00, 0x00, 0x00, 0x00, 0x00, 0x00, 
  };
#endif